icons/file-submodule-24.svg

<svg xmlns="http://www.w3.org/2000/svg" width="24" height="24" viewBox="0 0 24 24"><path d="M2 4.75C2 3.784 2.784 3 3.75 3h4.965a1.75 1.75 0 011.456.78l1.406 2.109a.25.25 0 00.208.111h8.465c.966 0 1.75.784 1.75 1.75v11.5A1.75 1.75 0 0120.25 21H3.75A1.75 1.75 0 012 19.25zm12.78 4.97a.749.749 0 00-1.275.326.749.749 0 00.215.734l1.72 1.72H6.75a.75.75 0 000 1.5h8.69l-1.72 1.72a.749.749 0 00.326 1.275.749.749 0 00.734-.215l3-3a.75.75 0 000-1.06z"/></svg>

<svg xmlns="http://www.w3.org/2000/svg" width="24" height="24" viewBox="0 0 24 24">
  <defs/>
  <path d="M2,4.75 C2,3.784 2.784,3 3.75,3 L8.715,3 C9.3,3 9.847,3.293 10.171,3.78 L11.577,5.889 C11.623,5.958 11.701,6 11.785,6 L20.25,6 C21.216,6 22,6.784 22,7.75 L22,19.25 C22,20.216 21.216,21 20.25,21 L3.75,21 C2.784,21 2,20.216 2,19.25 Z M14.78,9.72 C14.593,9.519 14.311,9.437 14.046,9.505 C13.78,9.572 13.572,9.78 13.505,10.046 C13.437,10.311 13.519,10.593 13.72,10.78 L15.44,12.5 L6.75,12.5 C6.336,12.5 6,12.836 6,13.25 C6,13.664 6.336,14 6.75,14 L15.44,14 L13.72,15.72 C13.519,15.907 13.437,16.189 13.505,16.454 C13.572,16.72 13.78,16.928 14.046,16.995 C14.311,17.063 14.593,16.981 14.78,16.78 L17.78,13.78 C18.072,13.487 18.072,13.013 17.78,12.72 Z"/>
</svg>
